src/assets/img/Footer/mailicon.svg

<svg width="24" height="25" viewBox="0 0 24 25" fill="none" xmlns="http://www.w3.org/2000/svg">
<g id="Icon">
<g id="Subtract">
<path d="M1.5 9.1691V17.75C1.5 19.4069 2.84315 20.75 4.5 20.75H19.5C21.1569 20.75 22.5 19.4069 22.5 17.75V9.1691L13.5723 14.6631C12.6081 15.2564 11.3919 15.2564 10.4277 14.6631L1.5 9.1691Z" fill="#CAFF33"/>
<path d="M22.5 7.40783V7.25C22.5 5.59315 21.1569 4.25 19.5 4.25H4.5C2.84315 4.25 1.5 5.59315 1.5 7.25V7.40783L11.2139 13.3856C11.696 13.6823 12.304 13.6823 12.7861 13.3856L22.5 7.40783Z" fill="#CAFF33"/>
</g>
</g>
</svg>

<svg width="24" height="25" fill="none" xmlns="http://www.w3.org/2000/svg"><g fill="#CAFF33"><path d="M1.5 9.17v8.58a3 3 0 0 0 3 3h15a3 3 0 0 0 3-3V9.17l-8.928 5.493a3 3 0 0 1-3.144 0L1.5 9.17Z"/><path d="M22.5 7.408V7.25a3 3 0 0 0-3-3h-15a3 3 0 0 0-3 3v.158l9.714 5.978a1.5 1.5 0 0 0 1.572 0L22.5 7.408Z"/></g></svg>
